svg/color/chr.svg

<svg width="64" height="65" viewBox="0 0 64 65" fill="none" xmlns="http://www.w3.org/2000/svg">
<rect y="0.303711" width="64" height="64" rx="32" fill="#1F1A23"/>
<rect x="0.5" y="0.803711" width="63" height="63" rx="31.5" stroke="#070B14" stroke-opacity="0.15"/>
<path d="M38.9252 35.8926C37.6411 38.3135 35.1132 39.9586 32.1841 39.9586C27.9709 39.9586 24.5602 36.548 24.5602 32.3348C24.5602 28.1216 27.9709 24.7109 32.1841 24.7109C35.1132 24.7109 37.6411 26.356 38.9252 28.777H46.8567C45.265 22.1429 39.313 17.194 32.1841 17.194C23.8379 17.194 17.0701 23.9619 17.0701 32.308C17.0701 40.6541 23.8379 47.422 32.1841 47.422C39.2863 47.422 45.2383 42.5133 46.8433 35.9059H38.9252V35.8926Z" fill="#FFB0C2"/>
<path d="M44.1287 23.0792C45.8273 21.6882 46.9241 19.5749 46.9241 17.2075C46.9241 13.021 43.5268 9.62372 39.3403 9.62372C35.1539 9.62372 31.7566 13.021 31.7566 17.2075C31.9037 17.2075 32.0375 17.2075 32.1846 17.2075C37.0532 17.1941 41.3734 19.4946 44.1287 23.0792Z" fill="#CB8EE9"/>
<path d="M39.3403 24.7779C41.1594 24.7779 42.8179 24.1359 44.1287 23.0792C41.3734 19.5081 37.0532 17.2075 32.1846 17.2075C32.0375 17.2075 31.9037 17.2075 31.7566 17.2075C31.7566 21.3806 35.1539 24.7779 39.3403 24.7779Z" fill="#CB65B7"/>
</svg>

<svg xmlns="http://www.w3.org/2000/svg" width="64" height="65" fill="none" viewBox="0 0 64 65"><rect width="64" height="64" y=".304" fill="#1F1A23" rx="32"/><rect width="63" height="63" x=".5" y=".804" stroke="#070B14" stroke-opacity=".15" rx="31.5"/><path fill="#FFB0C2" d="M38.925 35.893c-1.284 2.42-3.812 4.066-6.74 4.066a7.62 7.62 0 0 1-7.625-7.624 7.62 7.62 0 0 1 7.624-7.624c2.93 0 5.457 1.645 6.741 4.066h7.932c-1.592-6.634-7.544-11.583-14.673-11.583-8.346 0-15.114 6.768-15.114 15.114s6.768 15.114 15.114 15.114c7.102 0 13.054-4.909 14.66-11.516h-7.919z"/><path fill="#CB8EE9" d="M44.129 23.08a7.58 7.58 0 0 0 2.795-5.872 7.586 7.586 0 0 0-7.584-7.584 7.586 7.586 0 0 0-7.583 7.583h.428c4.868-.013 9.188 2.288 11.944 5.872"/><path fill="#CB65B7" d="M39.34 24.778c1.82 0 3.478-.642 4.789-1.699a15.04 15.04 0 0 0-11.944-5.872h-.428c0 4.174 3.397 7.57 7.583 7.57"/></svg>
